src/main/resources/img/object/type/TypeCollectionErr.svg

<svg width="16" height="16" version="1.1" viewBox="0 0 16 16"  xmlns="http://www.w3.org/2000/svg"><path d="m4.5996 6.0996a4.5 4.5 0 0 0-3.5996 4.4219 4.5 4.5 0 0 0 4.5117 4.4785 4.5 4.5 0 0 0 2.7637-0.97266 4.5 4.5 0 0 1-0.17578-0.62695h-2.6992v-0.40039l2.291-3.5996h-3.0918v-3.3008z" fill="#589bc0"/><path d="m5 2v7h2.9453l2.8008-4.4004h0.51562l0.73828 1.207v-3.8066h-7z" fill="#d67876"/><path d="m11 5-5 8h2.0352a4.5 4.5 0 0 1-0.035156-0.5 4.5 4.5 0 0 1 4.5-4.5 4.5 4.5 0 0 1 0.38672 0.017578l-1.8867-3.0176z" fill="#5eba6a"/><g fill-rule="evenodd">
        
        <path d="m13 14v1h-1v-1zm0-4v3h-1v-3z" fill="#fff"/>
    </g><g transform="translate(0 .0090555)" fill-rule="evenodd">
        <path d="m16 12.5c0 1.933-1.567 3.5-3.5 3.5s-3.5-1.567-3.5-3.5 1.567-3.5 3.5-3.5 3.5 1.567 3.5 3.5" fill="#e05555"/>
        <path d="m13 14v1h-1v-1zm0-4v3h-1v-3z" fill="#fff"/>
    </g></svg>

<svg width="16" height="16" xmlns="http://www.w3.org/2000/svg"><path d="M4.6 6.1A4.5 4.5 0 0 0 1 10.52 4.5 4.5 0 0 0 5.512 15a4.5 4.5 0 0 0 2.763-.973A4.5 4.5 0 0 1 8.1 13.4H5.4V13l2.291-3.6H4.6V6.1z" fill="#589bc0"/><path d="M5 2v7h2.945l2.801-4.4h.516L12 5.807V2H5z" fill="#d67876"/><path d="m11 5-5 8h2.035A4.5 4.5 0 0 1 8 12.5 4.5 4.5 0 0 1 12.5 8a4.5 4.5 0 0 1 .387.018L11 5z" fill="#5eba6a"/><path d="M13 14v1h-1v-1zm0-4v3h-1v-3z" fill="#fff" fill-rule="evenodd"/><g fill-rule="evenodd"><path d="M16 12.51a3.5 3.5 0 1 1-7 0 3.5 3.5 0 0 1 7 0" fill="#e05555"/><path d="M13 14.01v1h-1v-1zm0-4v3h-1v-3z" fill="#fff"/></g></svg>
